images_sukapura_svg/cmd/lc_insertbookmark.svg

<svg viewBox="0 0 24 24" xmlns="http://www.w3.org/2000/svg" xmlns:xlink="http://www.w3.org/1999/xlink"><linearGradient id="a" gradientUnits="userSpaceOnUse" x1="92" x2="92" y1="11" y2="3"><stop offset="0" stop-color="#0040dd"/><stop offset="1" stop-color="#0a84ff"/></linearGradient><linearGradient id="b" gradientUnits="userSpaceOnUse" x1="15" x2="17.000001" y1="7" y2="4.999999"><stop offset="0" stop-color="#fff"/><stop offset=".77967989" stop-color="#f1f1f1"/><stop offset="1" stop-color="#d5d5d5"/></linearGradient><radialGradient id="c" cx="17" cy="6.555555" gradientTransform="matrix(1.4285714 -.00000006 .00000006 1.4285714 -7.285714 -4.365078)" gradientUnits="userSpaceOnUse" r="7"><stop offset="0" stop-color="#d7d7d7"/><stop offset=".29999998" stop-color="#f7f7f7"/><stop offset="1" stop-color="#fff"/></radialGradient><path d="m5 3v18h14v-14.2705905l-4-3.7294095z" fill="url(#c)"/><path d="m5 2c-.554 0-1 .446-1 1v18c0 .554.446 1 1 1h14c.554 0 1-.446 1-1v-10.109375-3.6412209-.2079239c0-.4506799.09887-.4265951-.604637-1.0675892l-3.307389-3.2370335c-.709525-.7368575-.711223-.7368575-1.094804-.7368575h-.331557-.661613zm0 1h9v4c0 .554.446 1 1 1h4v13h-14z" fill="#98989d"/><path d="m15 7h4l-4-4z" fill="#fff" fill-rule="evenodd"/><path d="m15 3 4 4h-4z" fill="url(#b)"/><path d="m12 9c-1.090703 0-2 .9092972-2 2v10 1h4v-1-2.255859c.315919.143484.643702.300311 1.003906.164062l3.996094-1.505859 1-.376953v-2.138672l-1 .376953-3.955078 1.492187v-5.427734l3.955078 1.925781 1 .486328v-2.224609l-1-.486328-3.873047-1.8847658h-.001953c-.187485-.0912461-.394314-.1420712-.605469-.1445312-.483875-.0058955-.848345.2484149-1.111328.5917969-.363662-.3636622-.862852-.5917969-1.408203-.5917969z" fill="#fff" fill-opacity=".784314"/><path d="m14.507927 10.000201c-.254427-.0030999-.462142.225115-.462277.507799v6.9842c.000328.347953.308173.592601.604651.480457l8.087202-3.048752c.393157-.150748.415773-.75902.03515-.945289l-8.085442-3.935448c-.05655-.02763-.117518-.04225-.179286-.04297z" fill="url(#a)"/><path d="m12 10c-.554 0-1 .446-1 1v11c0 .554.446 1 1 1s1-.446 1-1v-11c0-.554-.446-1-1-1z" fill="#98989d"/></svg>

<?xml version="1.0" encoding="UTF-8" standalone="no"?>
<svg
   xmlns:dc="http://purl.org/dc/elements/1.1/"
   xmlns:cc="http://creativecommons.org/ns#"
   xmlns:rdf="http://www.w3.org/1999/02/22-rdf-syntax-ns#"
   xmlns:svg="http://www.w3.org/2000/svg"
   xmlns="http://www.w3.org/2000/svg"
   xmlns:xlink="http://www.w3.org/1999/xlink"
   xmlns:sodipodi="http://sodipodi.sourceforge.net/DTD/sodipodi-0.dtd"
   xmlns:inkscape="http://www.inkscape.org/namespaces/inkscape"
   viewBox="0 0 24 24"
   version="1.1"
   id="svg24"
   sodipodi:docname="lc_insertbookmark.svg"
   inkscape:version="0.92.3 (unknown)">
  <metadata
     id="metadata30">
    <rdf:RDF>
      <cc:Work
         rdf:about="">
        <dc:format>image/svg+xml</dc:format>
        <dc:type
           rdf:resource="http://purl.org/dc/dcmitype/StillImage" />
        <dc:title></dc:title>
      </cc:Work>
    </rdf:RDF>
  </metadata>
  <defs
     id="defs28">
    <linearGradient
       gradientTransform="translate(75,-7)"
       id="a-367"
       gradientUnits="userSpaceOnUse"
       x1="14"
       x2="13.79661"
       y1="22"
       y2="2.1355929">
      <stop
         offset="0"
         stop-color="#0040dd"
         id="stop2206" />
      <stop
         offset="1"
         stop-color="#0a84ff"
         id="stop2208" />
    </linearGradient>
    <linearGradient
       inkscape:collect="always"
       xlink:href="#a-367"
       id="linearGradient2285"
       x1="17"
       y1="18"
       x2="17"
       y2="10"
       gradientUnits="userSpaceOnUse" />
  </defs>
  <sodipodi:namedview
     pagecolor="#ffffff"
     bordercolor="#666666"
     borderopacity="1"
     objecttolerance="10"
     gridtolerance="10"
     guidetolerance="10"
     inkscape:pageopacity="0"
     inkscape:pageshadow="2"
     inkscape:window-width="1366"
     inkscape:window-height="699"
     id="namedview26"
     showgrid="true"
     inkscape:zoom="6.9532167"
     inkscape:cx="3.4054377"
     inkscape:cy="5.4436216"
     inkscape:window-x="0"
     inkscape:window-y="0"
     inkscape:window-maximized="1"
     inkscape:current-layer="svg24">
    <inkscape:grid
       type="xygrid"
       id="grid1645" />
  </sodipodi:namedview>
  <linearGradient
     id="a"
     gradientUnits="userSpaceOnUse"
     x1="15"
     x2="17.0000008"
     y1="7"
     y2="4.9999992">
    <stop
       offset="0"
       stop-color="#fff"
       id="stop2" />
    <stop
       offset=".77967989"
       stop-color="#f1f1f1"
       id="stop4" />
    <stop
       offset="1"
       stop-color="#d5d5d5"
       id="stop6" />
  </linearGradient>
  <radialGradient
     id="b"
     cx="17"
     cy="6.555555"
     gradientTransform="matrix(1.4285714 -.00000006 .00000006 1.4285714 -7.285714 -4.365078)"
     gradientUnits="userSpaceOnUse"
     r="7">
    <stop
       offset="0"
       stop-color="#d7d7d7"
       id="stop9" />
    <stop
       offset=".29999998"
       stop-color="#f7f7f7"
       id="stop11" />
    <stop
       offset="1"
       stop-color="#fff"
       id="stop13" />
  </radialGradient>
  <g
     id="g844">
    <path
       id="path16"
       d="m5 3v18h14v-14.2705905l-4-3.7294095z"
       fill="url(#b)" />
    <path
       id="path18"
       d="m5 2c-.554 0-1 .446-1 1v18c0 .554.446 1 1 1h14c.554 0 1-.446 1-1v-10.109375-3.6412209-.2079239c0-.4506799.09887-.4265951-.604637-1.0675892l-3.307389-3.2370335c-.709525-.7368575-.711223-.7368575-1.094804-.7368575h-.331557-.661613zm0 1h9v4c0 .554.446 1 1 1h4v13h-14z"
       fill="#98989d" />
    <path
       id="path20"
       d="m15 7h4l-4-4z"
       fill-rule="evenodd"
       fill="#fff" />
    <path
       id="path22"
       d="m15 3 4 4h-4z"
       fill="url(#a)" />
    <path
       style="fill:#ffffff;fill-opacity:0.78431374"
       d="M 12 9 C 10.909297 9 10 9.9092972 10 11 L 10 21 L 10 22 L 14 22 L 14 21 L 14 18.744141 C 14.315919 18.887625 14.643702 19.044452 15.003906 18.908203 L 19 17.402344 L 20 17.025391 L 20 14.886719 L 19 15.263672 L 15.044922 16.755859 L 15.044922 11.328125 L 19 13.253906 L 20 13.740234 L 20 11.515625 L 19 11.029297 L 15.126953 9.1445312 L 15.125 9.1445312 C 14.937515 9.0532851 14.730686 9.00246 14.519531 9 C 14.035656 8.9941045 13.671186 9.2484149 13.408203 9.5917969 C 13.044541 9.2281347 12.545351 9 12 9 z "
       id="path1631" />
  </g>
  <path
     inkscape:connector-curvature="0"
     style="fill:url(#linearGradient2285);fill-opacity:1"
     d="M 14.507927,10.000201 C 14.2535,9.9971011 14.045785,10.225316 14.04565,10.508 v 6.9842 c 3.28e-4,0.347953 0.308173,0.592601 0.604651,0.480457 l 8.087202,-3.048752 c 0.393157,-0.150748 0.415773,-0.75902 0.03515,-0.945289 l -8.085442,-3.935448 c -0.05655,-0.02763 -0.117518,-0.04225 -0.179286,-0.04297 z"
     id="path22-6" />
  <path
     inkscape:connector-curvature="0"
     style="fill:#98989d"
     d="m 12,10 c -0.554,0 -1,0.446 -1,1 v 11 c 0,0.554 0.446,1 1,1 0.554,0 1,-0.446 1,-1 V 11 c 0,-0.554 -0.446,-1 -1,-1 z"
     id="path24" />
</svg>
